lib/healthicons/icons/solid/symbols/medical_advice.svg

<svg fill="none" height="48" viewBox="0 0 48 48" width="48" xmlns="http://www.w3.org/2000/svg"><path clip-rule="evenodd" d="m24 14c0-5.52285 4.4772-10 10-10s10 4.47715 10 10c0 5.5228-4.4772 10-10 10h-9c-.5523 0-1-.4477-1-1zm-16.22222-5c-1.53006 0-2.77778 1.2477-2.77778 2.7778 0 17.2456 13.9766 31.2222 31.2222 31.2222 1.5301 0 2.7778-1.2477 2.7778-2.7778v-6.2044c0-1.5301-1.2477-2.7778-2.7778-2.7778-2.0959 0-4.1395-.3379-6.0283-.9613-.9832-.3345-2.0912-.0801-2.8388.6675l-3.3886 3.3887c-4.3437-2.3806-7.9374-5.9618-10.3027-10.3l3.39-3.39c.7727-.7728.9936-1.8584.6913-2.8203l-.0022-.0069-.0023-.0069c-.6245-1.8906-.9628-3.9181-.9628-6.033 0-1.5301-1.2477-2.7778-2.7778-2.7778zm25.22222 10v-4h-4v-2h4v-4h2v4h4v2h-4v4z" fill="#333" fill-rule="evenodd"/></svg>

<svg width="48" height="48" viewBox="0 0 48 48" fill="none" xmlns="http://www.w3.org/2000/svg">
<path fill-rule="evenodd" clip-rule="evenodd" d="M24 14C24 8.47715 28.4772 4 34 4C39.5228 4 44 8.47715 44 14C44 19.5228 39.5228 24 34 24H25C24.4477 24 24 23.5523 24 23V14ZM7.77778 9C6.24772 9 5 10.2477 5 11.7778C5 29.0234 18.9766 43 36.2222 43C37.7523 43 39 41.7523 39 40.2222V34.0178C39 32.4877 37.7523 31.24 36.2222 31.24C34.1263 31.24 32.0827 30.9021 30.1939 30.2787C29.2107 29.9442 28.1027 30.1986 27.3551 30.9462L23.9665 34.3349C19.6228 31.9543 16.0291 28.3731 13.6638 24.0349L17.0538 20.6449C17.8265 19.8721 18.0474 18.7865 17.7451 17.8246L17.7429 17.8177L17.7406 17.8108C17.1161 15.9202 16.7778 13.8927 16.7778 11.7778C16.7778 10.2477 15.5301 9 14 9H7.77778ZM33 19V15H29V13H33V9H35V13L39 13V15L35 15V19H33Z" fill="#333333"/>
</svg>
